X:1
T:Partition sans titre
C:Compositeur / Arrangeur
L:1/8
M:4/4
I:linebreak $
K:D
V:1 treble nm="Violon" snm="Vln."
V:1
"D" fafd"A" egec | Acec"D" defd | Adfd"G" gfed |"A" ca^gb"D" a2 a=g |"D" fafd"A" egec | %5
 Acec"D" defd | Adfd"G" gfed |1"A" caec"D" d2 ef :|2"A" caec"D" d2 AG |:"D" D2 Ad fdAF | %10
"G" GBef ge"A"ce |"D" dfaf"G" bg"A"ec |"D" dfed"A" cBAG |"D" D2 Ad fdAF |"G" GBef ge"A"ce | %15
"D" dfaf"G" bg"A"ec |1"D" df"A"ec"D" d2 AG :|2"D" df"A"ec"D" d2 ef |] %18
